public/images/home-yellow.svg

<svg fill="none" height="24" viewBox="0 0 24 24" width="24" xmlns="http://www.w3.org/2000/svg"><path d="m23.9937 11.9796c0 .7511-.6259 1.3353-1.3353 1.3353h-1.3353v8.0118c0 .7511-.6259 1.3353-1.2936 1.3353h-4.0059c-.7511 0-1.3353-.5842-1.3353-1.2936v-4.0059c0-.7094-.5842-1.3353-1.3353-1.3353h-2.6706c-.7511 0-1.33529.6259-1.33529 1.2936v4.0059c-.04173.7511-.62592 1.3353-1.3353 1.3353h-4.00591c-.7511 0-1.3353-.5842-1.3353-1.3353v-8.0118h-1.3353c-.751106 0-1.3353-.5842-1.3353-1.3353 0-.3756.125185-.7094.417282-1.0015l10.682418-9.30541c.2921-.29209.6259-.33382.918-.33382s.6259.08345.8763.29209l10.6407 9.34714c.3338.2921.5007.6259.459 1.0015z" fill="#fbc825"/></svg>

<svg width="24" height="24" viewBox="0 0 24 24" fill="none" xmlns="http://www.w3.org/2000/svg">
<path d="M23.9937 11.9796C23.9937 12.7307 23.3678 13.3149 22.6584 13.3149H21.3231V21.3267C21.3231 22.0778 20.6972 22.662 20.0295 22.662H16.0236C15.2725 22.662 14.6883 22.0778 14.6883 21.3684V17.3625C14.6883 16.6531 14.1041 16.0272 13.353 16.0272H10.6824C9.9313 16.0272 9.34711 16.6531 9.34711 17.3208V21.3267C9.30538 22.0778 8.72119 22.662 8.01181 22.662H4.0059C3.2548 22.662 2.6706 22.0778 2.6706 21.3267V13.3149H1.3353C0.584194 13.3149 0 12.7307 0 11.9796C0 11.604 0.125185 11.2702 0.417282 10.9781L11.0997 1.67269C11.3918 1.3806 11.7256 1.33887 12.0177 1.33887C12.3098 1.33887 12.6436 1.42232 12.894 1.63096L23.5347 10.9781C23.8685 11.2702 24.0354 11.604 23.9937 11.9796Z" fill="#FBC825"/>
</svg>
